!!!OTL: RUHT IHR WEICHEN SEELEN
!!!ARE: Europa, Mitteleuropa, Deutschland
!!!SCT: F1043
!!!YEM: Copyright 1995, estate of Helmut Schaffrath.
**kern
*ICvox
*Ivox
*M4/4
*k[b-e-]
*B-:
=1
{4.b-
8b-
4a
4b-
=2
4.cc
8a
4b-}
{8cc
8dd
=3
4.ee-
8cc
4.dd
8b-
=4
4dd
4.cc
8cc#}
{8dd
8cc
=5
4b-
4a-
4g
4f
=6
4f
4e-}
{4.cc
8b-
=7
4a
4b-
4cc
4a
=8
2b-
2r}
==
!!!AGN: Trost - Lied
!!!ONB: ESAC (Essen Associative Code) Database: FINK
!!!AMT: simple quadruple
!!!AIN: vox
!!!EED: Helmut Schaffrath
!!!EEV: 1.0
*-
